!!!!SEGMENT: pl-kk--kk-i-277--002-006_anonim--rorate-caeli-mittit-ad-virginem.krn
!!!cenid: 16xx:1088
!!!COM: Anonim
!!!COM-rismID: pe30004985
!!!CDT:
!!!CNT:
!!!OPR: Rorate caeli
!!!OTL: Mittit ad virginem
!!!OMV: 006
!!!PDT:
!!!AGN: Sacred
!!!SMS-siglum: PL-Kk
!!!SMS-shelfmark: Kk.I.277
!!!SMS-shelfwork: 002-006 M
!!!SMS-variant:
!!!SMS-altvar:
!!!NIFC-rismSourceID: 1001147171
!!!NIFC-rismChildID: 1001147188
!!!NIFC-islandoraID: pl-kk:4889
!!!URL-pdf-islandora: https://repozytorium.nifc.pl/islandora/object/pl-kk%3A4889/datastream/PDF/view
!!!URL-scan: https://polish.musicsources.pl/pl/lokalizacje/galeria/rekopisy/5895 @EN{Scan on Polish Music Sources Website} @PL{Skany w portalu Dziedzictwo Muzyki Polskiej w otwartym dostępie}
!!!IIIF:
!!!ONB-nifc: UWAGA: Introitus Secundi officii od str. 5. części: 1. Rorate caeli (Rorate caeli + Benedixisti + Gloria patri), 2. Kyrie, 3. Et in terra, 4. Tollite portas, 5. Alleluia, 6. Mittit ad virginem, 7. Ave Maria, 8. Sanctus, 9. Agnus Dei, 10. Ecce virgo
!!!AIN: 1 tenor
!!!key:
**kern	**text	**text
*Itenor	*	*
*I"[Tenore]	*	*
*I'[T]	*	*
*clefC4	*	*
*k[]	*	*
*C:	*	*
*M2/1	*	*
*met(C)	*	*
=1-	=1-	=1-
!LO:TX:a:t=P:problem=inicjał M przed kluczem	!	!
1C	Mi-	For-
1G	-tit	-tem
!LO:PB:g=original	!	!
=2-	=2-	=2-
1F	ad	ex-
1G	Vir-	-pe-
=3-	=3-	=3-
1E	-gi-	-di-
1F,<	-nem	-at
=4-	=4-	=4-
1G	non	pro
1A	quem-	no-
=5-	=5-	=5-
1B	-vis	-bis
1A	An-	nun-
=6-	=6-	=6-
1G	-ge-	-ti-
1F,<	-lu(m)	-um
=7-	=7-	=7-
1A	ſed	na-
1c	for-	-tu-
=8-	=8-	=8-
1B	-ti-	-rae
1A	-tu-	fa-
=9-	=9-	=9-
1G	-di-	-ci-
1F,<	-nem	-at
=10-	=10-	=10-
(>1E	ſu-	ut
1F)	.	.
=11-	=11-	=11-
1G,<	-um	prae-
1D	ar-	-ju-
!LO:LB:g=original	!	!
=12-	=12-	=12-
1E	-chan-	-di-
1D,<	-ge-	-ci-
=13-	=13-	=13-
1C	-lu(m)	-um
1G	a-	in
=14-	=14-	=14-
*lig	*	*
1F	-ma-	par-
1G	.	.
*Xlig	*	*
=15-	=15-	=15-
1A	.	.
1F	-tor	-tu
=16-	=16-	=16-
*lig	*	*
1F	ho-	Vir-
1E	.	.
*Xlig	*	*
=17-	=17-	=17-
1D	.	.
1E	-mi-	-gi-
=18-	=18-	=18-
!LO:TX:t=P:problem=kreska pseudotaktowa	!	!
1F	-nis	-nis
1A	Na-	ſu-
=19-	=19-	=19-
1c	-tu-	-per-
1c,<	-ram	-bi-
=20-	=20-	=20-
1B	ſu-	-en-
1A	-pe-	-ti-
=21-	=21-	=21-
1G	-rat	-um
1A	na-	te-
=22-	=22-	=22-
1F	-t(us)	-rat
!LO:LB:g=original	!	!
1B	rex	faſ-
=23-	=23-	=23-
1A	glo-	-ti-
1G	-ri-	-gi-
=24-	=24-	=24-
1A,<	-ae	-a
1A	re-	col-
=25-	=25-	=25-
1c,<	-gnet	-la
1c,<	et	ſub-
=26-	=26-	=26-
1B	im-	-li-
1A	-pe-	-mi-
=27-	=27-	=27-
1G	-ret	-um
1A	et	cal-
=28-	=28-	=28-
1F	Zy-	-cet
1B	-ma-	vi
=29-	=29-	=29-
1A	-ſco-	pro-
1G	-ri-	-pri-
=30-	=30-	=30-
*lig	*	*
1F	-ae	-a
1E	.	.
*Xlig	*	*
=31-	=31-	=31-
1G	tol-	po-
1A	-lat	-tens
=32-	=32-	=32-
1F	de	in
*lig	*	*
1F	me-	proe-
=33-	=33-	=33-
1E	.	.
!LO:LB:g=original	!	!
*Xlig	*	*
1D	.	.
=34-	=34-	=34-
1E	-di-	li-
!LO:TX:t=P:problem=kreska pseudotaktowa	!	!
1F	-o	-o
=35-	=35-	=35-
1C	Fo-	E-
1D	-ras	-xi
=36-	=36-	=36-
1F	e-	qui
1F	-ij-	mit-
=37-	=37-	=37-
1E	-ci-	-te-
1G,<	-at	-ris
=38-	=38-	=38-
1E	mun-	haec
1F	-da-	do-
=39-	=39-	=39-
1E	-num	-na
1D,<	.	.
=40-	=40-	=40-
1E	prin-	diſ-
1D	-ci-	-ſe-
=41-	=41-	=41-
1C	-pe(m)	-re
1C	Ma-	re-
=42-	=42-	=42-
1D	-trem-	-ve-
1F,<	-(que)	-la
=43-	=43-	=43-
1F	fa-	ve-
!LO:LB:g=original	!	!
1E	-ci-	-te-
=44-	=44-	=44-
1G,<	-at	-ris
1G	ſe-	ve-
=45-	=45-	=45-
1A	-cum	-la-
1B	par-	-men
=46-	=46-	=46-
1A	-ti-	li-
1G	-ci-	-te-
=47-	=47-	=47-
*lig	*	*
1F	-pem	-rae
1E,<	.	.
*Xlig	*	*
=48-	=48-	=48-
1G	Pa-	Vir-
1A	-tris	-tu-
=49-	=49-	=49-
1F	Im-	-te
*lig	*	*
1F	-pe-	nun-
=50-	=50-	=50-
1E	.	.
*Xlig	*	*
1D	.	.
=51-	=51-	=51-
1E	.	.
1F	-rij.	-tij.
=52||	=52||	=52||
1F	Ac-	Vir-
1c	-ce-	-go
=53-	=53-	=53-
1c	-de	ſu-
!LO:LB:g=original	!	!
1d	nun-	-ſci-
=54-	=54-	=54-
1B	-ti-	-pi-
1c,<	-a	-as
=55-	=55-	=55-
1d	dic	De-
1f	a-	-i
=56-	=56-	=56-
1c	-ve	de-
1d	co-	-po-
=57-	=57-	=57-
1B	-mi-	-ſi-
1c,<	-n(us).	-tum
=58-	=58-	=58-
1d	dic	in
1e	ple-	quo
=59-	=59-	=59-
1f,<	-na	per-
1e	gra-	-fi-
=60-	=60-	=60-
1d	-ti-	-ci-
1c,<	-a	-as
=61-	=61-	=61-
1A,<	dic	ca-
1c	te-	-ſtum
=62-	=62-	=62-
1d,<	-cum	pro-
1c	Do-	-po-
=63-	=63-	=63-
*lig	*	*
1B	.	.
1A	.	.
!LO:LB:g=original	!	!
*Xlig	*	*
=64-	=64-	=64-
1G	-mi-	-ſi-
1A,<	-n(us)	-tum
=65-	=65-	=65-
1A	et	et
1c	dic	vo-
=66-	=66-	=66-
1B	ne	-tum
*lig	*	*
1A	ti-	te-
=67-	=67-	=67-
1G	.	.
*Xlig	*	*
*lig	*	*
1F	.	.
=68-	=68-	=68-
1E	.	.
*Xlig	*	*
1G	.	.
=69-	=69-	=69-
1G	me-	-ne-
!LO:TX:t=P:problem=kreska pseudotaktowa	!	!
1F	-as	-as.
=70-	=70-	=70-
1A	au-	Con-
1G	-dit	-ſi-
=71-	=71-	=71-
1A	et	-li-
1B	ſuſ-	-a-
=72-	=72-	=72-
1A	-ci-	-ri-
1G	-pit	-um
=73-	=73-	=73-
1A	pu-	hu-
1F	-el-	-ma-
=74-	=74-	=74-
1G	-la	-ni
!LO:LB:g=original	!	!
1F	nun-	ge-
=75-	=75-	=75-
*lig	*	*
1E	.	.
1D	.	.
*Xlig	*	*
=76-	=76-	=76-
1E	-ti-	-ne-
1F,<	-um	-ris
=77-	=77-	=77-
!	!LO:MO:mod=cre-	!
1A	ce-	et
1c	-dit	De-
=78-	=78-	=78-
1d	et	-um
1c	con-	for-
=79-	=79-	=79-
1B	-ci-	-ti-
1A,<	-pit	-um
=80-	=80-	=80-
1G	et	et
1A	pa-	pa-
=81-	=81-	=81-
1G,<	-rit	-tre(m)
*lig	*	*
1F	fi-	po-
=82-	=82-	=82-
1G	.	.
*Xlig	*	*
*lig	*	*
1A	-li-	-ſte-
=83-	=83-	=83-
1B	.	.
*Xlig	*	*
1A	-um	-ris
=84-	=84-	=84-
1c	ſed	in
*lig	*	*
1d	.	.
=85-	=85-	=85-
1c,<	.	.
!LO:PB:g=original	!	!
*Xlig	*	*
1F	ad-	fi-
=86-	=86-	=86-
*lig	*	*
1G	-mi-	-de
1A	.	.
*Xlig	*	*
=87-	=87-	=87-
*lig	*	*
1B	-ra-	ſta-
1A	.	.
*Xlig	*	*
=88-	=88-	=88-
*lig	*	*
1G	-bi-	-bi-
1F	.	.
*Xlig	*	*
=89-	=89-	=89-
!LO:TX:t=P:problem=kreska pseudotaktowa	!	!
1F	-lem	-lem
1A	Qui	.
=90-	=90-	=90-
1G	no-	.
1A	-bis	.
=91-	=91-	=91-
1B	tri-	.
1A	-bu-	.
=92-	=92-	=92-
1G,<	-at	.
1A	pec-	.
=93-	=93-	=93-
1F	-ca-	.
1G,<	-ti	.
=94-	=94-	=94-
*lig	*	*
1F	ve-	.
1E	.	.
*Xlig	*	*
=95-	=95-	=95-
*lig	*	*
1D	-ni-	.
1E	.	.
*Xlig	*	*
=96-	=96-	=96-
1F,<	-am	.
1F	re-	.
!LO:LB:g=original	!	!
=97-	=97-	=97-
1c	-a-	.
1c	-t(us)	.
=98-	=98-	=98-
1d	de-	.
1B	-le-	.
=99-	=99-	=99-
1c,<	-at	.
1F	et	.
=100-	=100-	=100-
1G	do-	.
*lig	*	*
1A	-net	.
=101-	=101-	=101-
1B	.	.
*Xlig	*	*
*lig	*	*
1c	Pa-	.
=102-	=102-	=102-
1B	.	.
*Xlig	*	*
*lig	*	*
1A	-tri-	.
=103-	=103-	=103-
1G	.	.
*Xlig	*	*
1A,<	-am	.
=104-	=104-	=104-
1c	in	.
*lig	*	*
1d	.	.
=105-	=105-	=105-
1c,<	.	.
*Xlig	*	*
1F	ar-	.
=106-	=106-	=106-
1G	-ce	.
*lig	*	*
1F	ſy-	.
=107-	=107-	=107-
1E	.	.
*Xlig	*	*
*lig	*	*
1D	-de-	.
=108-	=108-	=108-
1E	.	.
*Xlig	*	*
!LO:TX:t=P:problem=kreska pseudotaktowa	!	!
1F	-rum	.
!LO:LB:g=original	!	!
=109-	=109-	=109-
1F	a-	.
*lig	*	*
1E	.	.
=110-	=110-	=110-
1D	.	.
*Xlig	*	*
*lig	*	*
1E	.	.
=111-	=111-	=111-
1C	.	.
*Xlig	*	*
*lig	*	*
1G	.	.
=112-	=112-	=112-
1F	.	.
*Xlig	*	*
1G	.	.
=113-	=113-	=113-
1A	.	.
*lig	*	*
1B	.	.
=114-	=114-	=114-
1A	.	.
*Xlig	*	*
*lig	*	*
1G	.	.
=115-	=115-	=115-
1F	.	.
*Xlig	*	*
1E	.	.
=116-	=116-	=116-
0G	.	.
=117-	=117-	=117-
0F;;	-men.	.
=-	=-	=-
*-	*-	*-
!!!RDF**kern: l = terminal long
!!!RDF**kern: > = above
!!!RDF**kern: < = below
!!!EED: Antoni Szymański
!!!EEV: 2021-03-28
!!!ENC: Tomasz Grochalski
!!!END: 2021-03-14
!!!YEC: Copyright 2022 Narodowy Instytut Fryderyka Chopina (https://polishscores.org)
!!!YEM: License CC-BY-4.0 (https://creativecommons.org/licenses/by/4.0)
